dist/img/planets.svg

<svg width="155" height="132" viewBox="0 0 155 132" fill="none" xmlns="http://www.w3.org/2000/svg">
<path d="M77.4951 130.656C109.422 130.656 135.305 104.855 135.305 73.0268C135.305 41.1988 109.422 15.3972 77.4951 15.3972C45.5677 15.3972 19.6855 41.1988 19.6855 73.0268C19.6855 104.855 45.5677 130.656 77.4951 130.656Z" fill="#F0EFED"/>
<path d="M77.54 132C75.4465 132 73.344 131.893 71.2146 131.66C38.7787 128.211 15.2109 99.0918 18.6702 66.7658C22.1294 34.4398 51.3397 10.9455 83.7667 14.385C116.203 17.8335 139.77 46.9528 136.311 79.2788C133.085 109.5 107.37 132 77.54 132ZM77.4592 16.7407C48.9946 16.7407 24.4475 38.2108 21.3657 67.0525C18.0592 97.9095 40.5577 125.694 71.5111 128.99C102.464 132.287 130.336 109.858 133.643 79.0012L134.981 79.1445L133.643 79.0012C136.949 48.1441 114.451 20.3594 83.4971 17.0632C81.4665 16.8482 79.4449 16.7407 77.4592 16.7407Z" fill="black"/>
<path d="M105.016 94.9895C95.4651 94.9895 85.3211 94.4431 75.3207 93.3772C37.2422 89.3197 -1.33049 77.5232 0.0352312 64.7863C0.780988 57.8088 12.7401 54.4588 22.6415 52.8734L23.0728 55.5247C10.7544 57.4953 3.14405 61.0602 2.71277 65.064C1.7963 73.6001 30.8718 85.9429 75.6083 90.6991C120.345 95.4553 151.37 89.5167 152.286 80.9807C152.718 76.9769 146.033 71.8803 134.415 67.366L135.395 64.8669C144.739 68.5035 155.71 74.2987 154.964 81.2673C153.958 90.6632 131.828 94.9895 105.016 94.9895Z" fill="black"/>
<path d="M122.034 54.1901C136.673 54.1901 148.54 42.36 148.54 27.7668C148.54 13.1737 136.673 1.34356 122.034 1.34356C107.395 1.34356 95.528 13.1737 95.528 27.7668C95.528 42.36 107.395 54.1901 122.034 54.1901Z" fill="black"/>
<path d="M122.034 55.5337C106.678 55.5337 94.1803 43.0744 94.1803 27.7668C94.1803 12.4593 106.678 0 122.034 0C137.389 0 149.887 12.4593 149.887 27.7668C149.887 43.0744 137.389 55.5337 122.034 55.5337ZM122.034 2.68711C108.161 2.68711 96.8758 13.9372 96.8758 27.7668C96.8758 41.5965 108.161 52.8466 122.034 52.8466C135.907 52.8466 147.192 41.5965 147.192 27.7668C147.192 13.9372 135.907 2.68711 122.034 2.68711Z" fill="black"/>
<path d="M107.406 27.7668C107.406 16.481 114.504 6.85214 124.496 3.06331C125.34 2.74086 125.17 1.51374 124.262 1.43313C123.525 1.37043 122.78 1.3346 122.025 1.3346C107.388 1.3346 95.5191 13.1669 95.5191 27.7579C95.5191 42.3489 107.388 54.1812 122.025 54.1812C122.78 54.1812 123.525 54.1454 124.262 54.0827C125.17 54.002 125.34 52.7749 124.496 52.4525C114.513 48.6816 107.406 39.0527 107.406 27.7668Z" fill="#F0EFED"/>
<path d="M122.034 55.5337C106.678 55.5337 94.1803 43.0744 94.1803 27.7668C94.1803 12.4593 106.678 0 122.034 0C122.816 0 123.606 0.0358282 124.388 0.0985275C125.421 0.188098 126.239 0.958404 126.383 1.97951C126.526 2.99165 125.951 3.95901 124.981 4.32625C115.277 7.99864 108.754 17.4215 108.754 27.7668C108.754 38.1122 115.277 47.535 124.981 51.2074C125.942 51.5747 126.526 52.542 126.383 53.5542C126.239 54.5753 125.421 55.3456 124.388 55.4352C123.606 55.4979 122.807 55.5337 122.034 55.5337ZM124.029 53.7244H124.038H124.029ZM121.971 2.68711C108.125 2.72294 96.8758 13.964 96.8758 27.7668C96.8758 41.5697 108.125 52.8107 121.971 52.8466C112.375 48.2874 106.067 38.4705 106.067 27.7668C106.067 17.0632 112.366 7.24625 121.971 2.68711Z" fill="black"/>
</svg>

<svg width="155" height="132" fill="none" xmlns="http://www.w3.org/2000/svg"><path d="M77.495 130.656c31.927 0 57.81-25.801 57.81-57.63 0-31.827-25.883-57.629-57.81-57.629-31.927 0-57.81 25.802-57.81 57.63 0 31.828 25.883 57.629 57.81 57.629z" fill="#F0EFED"/><path d="M77.54 132a58.01 58.01 0 01-6.325-.34C38.779 128.211 15.21 99.092 18.67 66.766c3.46-32.326 32.67-55.82 65.097-52.381 32.436 3.449 56.003 32.568 52.544 64.894C133.085 109.5 107.37 132 77.54 132zm-.08-115.26c-28.465 0-53.012 21.47-56.094 50.313-3.307 30.856 19.192 58.641 50.145 61.937 30.953 3.297 58.825-19.132 62.132-49.989l1.338.143-1.338-.143c3.306-30.857-19.192-58.642-50.146-61.938a57.44 57.44 0 00-6.038-.322z" fill="#000"/><path d="M105.016 94.99c-9.55 0-19.695-.547-29.695-1.613C37.242 89.32-1.33 77.523.035 64.787c.746-6.978 12.705-10.328 22.607-11.914l.43 2.652c-12.318 1.97-19.928 5.535-20.36 9.539-.916 8.536 28.16 20.879 72.896 25.635 44.737 4.756 75.762-1.182 76.678-9.718.432-4.004-6.253-9.1-17.871-13.615l.98-2.5c9.344 3.638 20.315 9.433 19.569 16.401-1.006 9.396-23.136 13.723-49.948 13.723zm17.018-40.8c14.639 0 26.506-11.83 26.506-26.423 0-14.593-11.867-26.423-26.506-26.423s-26.506 11.83-26.506 26.423c0 14.593 11.867 26.423 26.506 26.423z" fill="#000"/><path d="M122.034 55.534c-15.356 0-27.854-12.46-27.854-27.767C94.18 12.459 106.678 0 122.034 0c15.355 0 27.853 12.46 27.853 27.767 0 15.307-12.498 27.767-27.853 27.767zm0-52.847c-13.873 0-25.158 11.25-25.158 25.08 0 13.83 11.285 25.08 25.158 25.08 13.873 0 25.158-11.25 25.158-25.08 0-13.83-11.285-25.08-25.158-25.08z" fill="#000"/><path d="M107.406 27.767c0-11.286 7.098-20.915 17.09-24.704.844-.322.674-1.55-.234-1.63a26.36 26.36 0 00-2.237-.098c-14.637 0-26.506 11.832-26.506 26.423 0 14.59 11.869 26.423 26.506 26.423.755 0 1.5-.036 2.237-.098.908-.081 1.078-1.308.234-1.63-9.983-3.771-17.09-13.4-17.09-24.686z" fill="#F0EFED"/><path d="M122.034 55.534c-15.356 0-27.854-12.46-27.854-27.767C94.18 12.459 106.678 0 122.034 0c.782 0 1.572.036 2.354.099 1.033.09 1.851.86 1.995 1.88a2.178 2.178 0 01-1.402 2.347c-9.704 3.673-16.227 13.096-16.227 23.44 0 10.346 6.523 19.769 16.227 23.441a2.188 2.188 0 011.402 2.347 2.188 2.188 0 01-1.995 1.881c-.782.063-1.581.099-2.354.099zm1.995-1.81h.009-.009zm-2.058-51.037c-13.846.036-25.095 11.277-25.095 25.08 0 13.803 11.249 25.044 25.095 25.08-9.596-4.56-15.904-14.377-15.904-25.08 0-10.704 6.299-20.52 15.904-25.08z" fill="#000"/></svg>
